X: 11154
T: Dùn Beag
R: jig
M: 6/8
K: Aminor
|:A3 Acd|e2 g ede|edA d3|edc dcB|
A3 Acd|e2 g ede|edd dcB|cBG A2 G:|
|:A3 geg|dgB geg|dgB geg|dgB BAG|
A3 geg|dgB geg|dgB BAG|A3 AAG:|
|:A3 gee|edd dBB|edA ddd|edc dcB|
A3 gee|edd dBB|edd dgB|BAG A2 G:|
|:A3 gee|dgB BAG|dgB Bcd|egB BAG|
A3 gee|dgB BAG|egd gcg|1 BAG AAG:|2 BAG A3||

